X:3421
T:"Bellman-kadriljen"
T:(SvL Skåne nr. 411)
C:efter Jöns Jönsson, Kattarp
R:Kadrilj
Z:Åke Persson, 2014-12-01
O:Skåne
B:Svenska Låtar Skåne nr 411
M:2/4
L:1/8
K:D


((3A/B/c/) | dc/d/ ef/e/ | dc/B/ AB/c/ | de fg | fe aA |
| dc/d/ ef/e/ | dc/B/ AB/c/ | df ea | d2 z :: a | 
gA Ag | fA Af | eA Bc | df a/a/a |
gA/A/ Ag/g/ | fA/A/ Af/f/ | eA/A/ AB/c/ | d2 z :|[K:G]|: D | 
GG BB | d>c BA | GG AB | c>B AD |
GG BB | d>c BA | GA BA | GG G :: d/d/ |
cA Af | gd dd/d/ | cA Af | gd dd/d/ |
cd/c/ Bc/B/ |AB/A/ GG | A/B/c/A/ GF | GG G :|

(:musicend:)
(:music:)
